Numix-Light/16/status/indicator-keyboard-Lv-5.svg

<?xml version="1.0" encoding="UTF-8" standalone="no"?>
<svg
   xmlns:dc="http://purl.org/dc/elements/1.1/"
   xmlns:cc="http://creativecommons.org/ns#"
   xmlns:rdf="http://www.w3.org/1999/02/22-rdf-syntax-ns#"
   xmlns:svg="http://www.w3.org/2000/svg"
   xmlns="http://www.w3.org/2000/svg"
   xmlns:sodipodi="http://sodipodi.sourceforge.net/DTD/sodipodi-0.dtd"
   xmlns:inkscape="http://www.inkscape.org/namespaces/inkscape"
   viewBox="0 0 16 16"
   id="svg2"
   version="1.1"
   inkscape:version="0.91 r13725"
   sodipodi:docname="indicator-keyboard-Lv-5.svg">
  <metadata
     id="metadata14">
    <rdf:RDF>
      <cc:Work
         rdf:about="">
        <dc:format>image/svg+xml</dc:format>
        <dc:type
           rdf:resource="http://purl.org/dc/dcmitype/StillImage" />
      </cc:Work>
    </rdf:RDF>
  </metadata>
  <defs
     id="defs12" />
  <sodipodi:namedview
     pagecolor="#ffffff"
     bordercolor="#666666"
     borderopacity="1"
     objecttolerance="10"
     gridtolerance="10"
     guidetolerance="10"
     inkscape:pageopacity="0"
     inkscape:pageshadow="2"
     inkscape:window-width="640"
     inkscape:window-height="480"
     id="namedview10"
     showgrid="false"
     inkscape:zoom="14.75"
     inkscape:cx="8"
     inkscape:cy="8"
     inkscape:window-x="65"
     inkscape:window-y="24"
     inkscape:window-maximized="0"
     inkscape:current-layer="svg2" />
  <path
     style="fill:#353535;fill-opacity:1"
     d="M 1.5996094 0 C 0.71320937 2.9605947e-16 0 0.71320937 0 1.5996094 L 0 14.400391 C 2.9605947e-16 15.286791 0.71320937 16 1.5996094 16 L 14.400391 16 C 15.286791 16 16 15.286791 16 14.400391 L 16 1.5996094 C 16 0.71320937 15.286791 0 14.400391 0 L 1.5996094 0 z M 2.703125 4.859375 L 3.3144531 4.859375 L 3.3144531 10.564453 L 6.25 10.564453 L 6.25 11.095703 L 2.703125 11.095703 L 2.703125 4.859375 z M 6.3261719 6.4433594 L 6.9472656 6.4433594 C 7.0192656 6.7613594 7.1069844 7.10275 7.2089844 7.46875 C 7.3169844 7.82875 7.4307813 8.1888281 7.5507812 8.5488281 C 7.6767813 8.9028281 7.8055 9.2479844 7.9375 9.5839844 C 8.0695 9.9139846 8.1982187 10.208797 8.3242188 10.466797 C 8.4502188 10.208797 8.5808906 9.9139846 8.7128906 9.5839844 C 8.8448906 9.2479844 8.9698438 8.9028281 9.0898438 8.5488281 C 9.2158438 8.1888281 9.3296406 7.82875 9.4316406 7.46875 C 9.5396406 7.10275 9.6291719 6.7613594 9.7011719 6.4433594 L 10.287109 6.4433594 C 10.179109 6.8693594 10.059734 7.289125 9.9277344 7.703125 C 9.7957344 8.117125 9.6539062 8.5219688 9.5039062 8.9179688 C 9.3599062 9.3139687 9.2069219 9.6945467 9.0449219 10.060547 C 8.8889219 10.426547 8.7359375 10.771703 8.5859375 11.095703 L 8.0273438 11.095703 C 7.8713438 10.771703 7.7165469 10.426547 7.5605469 10.060547 C 7.4045469 9.6945467 7.2515625 9.3139687 7.1015625 8.9179688 C 6.9575625 8.5219688 6.8195 8.117125 6.6875 7.703125 C 6.5555 7.289125 6.4341719 6.8693594 6.3261719 6.4433594 z M 11.332031 8.8417969 L 13.15625 8.8417969 L 13.15625 9.1757812 L 11.664062 9.1757812 C 11.660129 9.2498812 11.654251 9.3458906 11.646484 9.4628906 C 11.638684 9.5798906 11.630847 9.6994187 11.623047 9.8242188 C 11.615247 9.9451188 11.60545 10.062681 11.59375 10.175781 C 11.58205 10.288881 11.572253 10.379012 11.564453 10.445312 C 11.864753 10.453112 12.12535 10.490341 12.34375 10.556641 C 12.56215 10.622941 12.740459 10.711119 12.880859 10.824219 C 13.021259 10.937319 13.125106 11.074475 13.191406 11.234375 C 13.261606 11.394275 13.296875 11.572578 13.296875 11.767578 C 13.296875 11.939178 13.267484 12.097894 13.208984 12.246094 C 13.154384 12.394294 13.068172 12.523613 12.951172 12.632812 C 12.834172 12.742012 12.687212 12.828225 12.507812 12.890625 C 12.328413 12.953025 12.114841 12.984375 11.869141 12.984375 C 11.744341 12.984375 11.626778 12.974578 11.517578 12.955078 C 11.412278 12.939478 11.318222 12.919884 11.232422 12.896484 C 11.150522 12.873084 11.079984 12.849572 11.021484 12.826172 C 10.962984 12.802772 10.919878 12.783178 10.892578 12.767578 L 10.992188 12.427734 C 11.015588 12.443334 11.054775 12.462928 11.109375 12.486328 C 11.167875 12.509728 11.234494 12.533241 11.308594 12.556641 C 11.386594 12.576141 11.470853 12.593775 11.564453 12.609375 C 11.661953 12.624975 11.763841 12.632812 11.869141 12.632812 C 12.064141 12.632812 12.226769 12.611259 12.355469 12.568359 C 12.488069 12.521559 12.591922 12.458859 12.669922 12.380859 C 12.747922 12.302859 12.802784 12.212728 12.833984 12.111328 C 12.869084 12.006028 12.886719 11.894337 12.886719 11.773438 C 12.886719 11.617438 12.861247 11.476362 12.810547 11.351562 C 12.759847 11.226762 12.671669 11.120956 12.542969 11.035156 C 12.414269 10.949356 12.239884 10.884697 12.021484 10.841797 C 11.803084 10.794997 11.526806 10.771484 11.191406 10.771484 C 11.214806 10.572584 11.2344 10.392316 11.25 10.228516 C 11.2656 10.060816 11.279316 9.9001469 11.291016 9.7480469 C 11.302716 9.5920469 11.310553 9.4431281 11.314453 9.2988281 C 11.322253 9.1506281 11.328131 8.9977969 11.332031 8.8417969 z "
     id="path4" />
</svg>

<svg xmlns="http://www.w3.org/2000/svg" viewBox="0 0 16 16">
 <path d="m 1.6 0 c -0.886 0 -1.6 0.713 -1.6 1.6 l 0 12.801 c 0 0.886 0.713 1.6 1.6 1.6 l 12.801 0 c 0.886 0 1.6 -0.713 1.6 -1.6 l 0 -12.801 c 0 -0.886 -0.713 -1.6 -1.6 -1.6 l -12.801 0 z m 1.104 4.859 l 0.611 0 l 0 5.705 l 2.936 0 l 0 0.531 l -3.547 0 l 0 -6.236 z m 3.623 1.584 l 0.621 0 c 0.072 0.318 0.16 0.659 0.262 1.025 c 0.108 0.36 0.222 0.72 0.342 1.08 c 0.126 0.354 0.255 0.699 0.387 1.035 c 0.132 0.33 0.261 0.625 0.387 0.883 c 0.126 -0.258 0.257 -0.553 0.389 -0.883 c 0.132 -0.336 0.257 -0.681 0.377 -1.035 c 0.126 -0.36 0.24 -0.72 0.342 -1.08 c 0.108 -0.366 0.198 -0.707 0.27 -1.025 l 0.586 0 c -0.108 0.426 -0.227 0.846 -0.359 1.26 c -0.132 0.414 -0.274 0.819 -0.424 1.215 c -0.144 0.396 -0.297 0.777 -0.459 1.143 c -0.156 0.366 -0.309 0.711 -0.459 1.035 l -0.559 0 c -0.156 -0.324 -0.311 -0.669 -0.467 -1.035 c -0.156 -0.366 -0.309 -0.747 -0.459 -1.143 c -0.144 -0.396 -0.282 -0.801 -0.414 -1.215 c -0.132 -0.414 -0.253 -0.834 -0.361 -1.26 z m 5.01 2.398 l 1.824 0 l 0 0.334 l -1.492 0 c -0.004 0.074 -0.01 0.17 -0.018 0.287 c -0.008 0.117 -0.016 0.237 -0.023 0.361 c -0.008 0.121 -0.018 0.238 -0.029 0.352 c -0.012 0.113 -0.021 0.203 -0.029 0.27 c 0.3 0.008 0.561 0.045 0.779 0.111 c 0.218 0.066 0.397 0.154 0.537 0.268 c 0.14 0.113 0.244 0.25 0.311 0.41 c 0.07 0.16 0.105 0.338 0.105 0.533 c 0 0.172 -0.029 0.33 -0.088 0.479 c -0.055 0.148 -0.141 0.278 -0.258 0.387 c -0.117 0.109 -0.264 0.195 -0.443 0.258 c -0.179 0.062 -0.393 0.094 -0.639 0.094 c -0.125 0 -0.242 -0.01 -0.352 -0.029 c -0.105 -0.016 -0.199 -0.035 -0.285 -0.059 c -0.082 -0.023 -0.152 -0.047 -0.211 -0.07 c -0.058 -0.023 -0.102 -0.043 -0.129 -0.059 l 0.1 -0.34 c 0.023 0.016 0.063 0.035 0.117 0.059 c 0.059 0.023 0.125 0.047 0.199 0.07 c 0.078 0.019 0.162 0.037 0.256 0.053 c 0.098 0.016 0.199 0.023 0.305 0.023 c 0.195 0 0.358 -0.022 0.486 -0.064 c 0.133 -0.047 0.236 -0.109 0.314 -0.188 c 0.078 -0.078 0.133 -0.168 0.164 -0.27 c 0.035 -0.105 0.053 -0.217 0.053 -0.338 c 0 -0.156 -0.025 -0.297 -0.076 -0.422 c -0.051 -0.125 -0.139 -0.231 -0.268 -0.316 c -0.129 -0.086 -0.303 -0.15 -0.521 -0.193 c -0.218 -0.047 -0.495 -0.07 -0.83 -0.07 c 0.023 -0.199 0.043 -0.379 0.059 -0.543 c 0.016 -0.168 0.029 -0.328 0.041 -0.48 c 0.012 -0.156 0.02 -0.305 0.023 -0.449 c 0.008 -0.148 0.014 -0.301 0.018 -0.457 z" style="fill:#353535;fill-opacity:1"/>
</svg>
